X:1
T:Manchester -- Reel
R:reel
B:Ryans Mammoth Collection
N:250
N:Contributed by Ray Davies ray:davies99.freeserve.co.uk
M:2/4
L:1/16
K:Emix
uE2|\
E"4"eed cABG|AFdF DEFD|E"4"eed cABG|AFdF (3.E.E.EE2|
E"4"eed cABG|AFdF DEFD|E"4"eed cABG|AFdF (3.E.E.EE2:|
vegBg egbg|fede fgaf|egBg egbg|fedf e2 z2|
vegBg egbg|fede fgaf|ecBA GBdc|BGAF (3.E.E.EE2:|
